!!!COM: Palestrina, Giovanni Perluigi da
!!!OPR: Spem In Alium
!!!OTL: Benedictus
**kern	**kern	**kern
*Itenor	*Icalto	*Icant
!Tenor	!Altus	!Cantus
*clefGv2	*clefG2	*clefG2
*k[]	*k[]	*k[]
*A:aeo	*A:aeo	*A:aeo
*M4/2	*M4/2	*M4/2
=1	=1	=1
0e	0r	0r
=2	=2	=2
1c	0r	0r
1f	.	.
=3	=3	=3
1e	0r	0ee
2r	.	.
[2a	.	.
=4	=4	=4
4a]	1r	1cc
4g	.	.
2.f	.	.
.	[1a	1ff
4e	.	.
[2d	.	.
=5	=5	=5
2d]	1a]	1ee
2c#	.	.
1d	1f	2r
.	.	2a
=6	=6	=6
1G	1b-	1.dd
1A	1a	.
.	.	2cc
=7	=7	=7
2.d	2r	2.ff
.	1d	.
4c	.	4ee
2B	.	2dd
2A	[2a	2cc
=8	=8	=8
1e	2a]	1b
.	2g	.
1r	2cc	2a
.	[2b	2g
=9	=9	=9
0e	4b]	1cc
.	4a	.
.	1a	.
.	.	1b
.	2g#	.
=10	=10	=10
1c	2r	1.ee
.	2.cc	.
1f	.	.
.	4b	.
.	[2a	2dd
=11	=11	=11
1e	2a]	2cc
.	2g	2b
2r	2f	1cc
[2A	2e	.
=12	=12	=12
2A]	1.f	[0a
1d	.	.
2c	2e	.
=13	=13	=13
2.f	2r	0a]
.	1d	.
4e	.	.
2d	.	.
2c	[2a	.
=14	=14	=14
1B	2a]	1r
.	2g	.
1A	2.cc	[1ee
.	4b	.
=15	=15	=15
1r	2a	1ee]
.	2g#	.
2r	[1a	1cc
[2A	.	.
=16	=16	=16
2A]	1a]	1ff
1d	.	.
.	[1a	1ee
2c	.	.
=17	=17	=17
2.f	1a]	2r
.	.	1a
4e	.	.
2.d	2r	.
.	[2d	[2dd
4c	.	.
=18	=18	=18
2B	2d]	2dd]
2A	1a	2cc
1e	.	1b
.	2g	.
=19	=19	=19
1A	2.cc	2r
.	.	1a
.	4b	.
1r	2a	.
.	2g	[2dd
=20	=20	=20
1A	2f	2dd]
.	2e	2cc
[1d	4d	2.ff
.	4e	.
.	4f	.
.	4g	4ee
=21	=21	=21
2d]	4a	4ff
.	4b	4dd
2c	2.cc	2ee
1f	.	4a
.	4b	4b
.	[2a	4cc
.	.	4a
=22	=22	=22
1e	2a]	1b
.	2g#	.
2r	1a	[1a
2d	.	.
=23	=23	=23
2d	1r	0a]
2c#	.	.
2.d	2r	.
.	2d	.
4e	.	.
=24	=24	=24
4f	2d	1r
4d	.	.
2e	2c#	.
2.f	2.d	2r
.	.	2dd
4e	4e	.
=25	=25	=25
2d	4f	2dd
.	4d	.
2A	2e	2cc#
1r	4d	2.dd
.	4e	.
.	4f	.
.	4g	4ee
=26	=26	=26
1r	4a	4ff
.	4f	4dd
.	4g	2ee
.	4a	.
2r	2b-	2dd
2d	[2a	[2ff
=27	=27	=27
2d	4a]	4ff]
.	4g	4ee
2c#	2e	1ee
1d	2f	.
.	2f	2dd
=28	=28	=28
2r	0e	2.ee
2A	.	.
.	.	4dd
2A	.	2cc
2G#	.	2b
=29	=29	=29
2.A	2r	1a
.	2a	.
4B	.	.
4c	2a	1r
4A	.	.
2B	2g#	.
=30	=30	=30
4A	2.a	0r
4B	.	.
4c	.	.
4d	4b	.
4e	4cc	.
4c	4a	.
4d	2b	.
4e	.	.
=31	=31	=31
2f	2a	2r
2e	1cc	2a
2.e	.	2a
.	[2b	2g#
4d	.	.
=32	=32	=32
2c	4b]	2.a
.	4a	.
2A	1a	.
.	.	4b
1e	.	4cc
.	.	4a
.	2g#	2b
=33	=33	=33
1A	[0a	4a
.	.	4b
.	.	4cc
.	.	4dd
2r	.	4ee
.	.	4cc
2d	.	4dd
.	.	4ee
=34	=34	=34
2d	1a]	2ff
2c#	.	2ee
2.d	2r	[1a
.	2d	.
4e	.	.
=35	=35	=35
4f	2d	0a]
4d	.	.
2e	2c#	.
2.f	2.d	.
4e	4e	.
=36	=36	=36
2d	4f	2r
.	4d	.
2c	2e	2a
1B	2.d	2a
.	.	2g#
.	4e	.
=37	=37	=37
2r	1f	2.a
2A	.	.
.	.	4b
2A	1e	4cc
.	.	4a
2G#	.	2b
=38	=38	=38
2.A	2r	4a
.	.	4b
.	2a	4cc
4B	.	4dd
4c	2a	4ee
4A	.	4cc
2B	2g#	4dd
.	.	4ee
=39	=39	=39
4A	2.a	2ff
4B	.	.
4c	.	1ee
4d	4b	.
4e	4cc	.
4c	4a	.
4d	[2b	2dd
4e	.	.
=40	=40	=40
2f	4b]	2cc
.	4a	.
2f	1a	4b
.	.	4a
1e	.	2b
.	2g#	2b
=41	=41	=41
0A	0a	0a
==	==	==
*-	*-	*-
!!!CDT: 1525/^1526/-1594/2/2
!!!OCY: Italia
!!!AGN: Mass (Parody)
!!!AST: renaissance, vocal
!!!ASW: Motet 1539 (Jacquet)
!!!PWK: Masses, Book 3
!!!RNB: Cadence finals: D
!!!YOR: Le Opere Complete, v. 6, p. 1
!!!YOO: Rome, Italy: Fratelli Scalera
!!!END: 1992//
!!!EED: John Miller
!!!YEC: Copyright 2000, John Miller
!!!YEN: United States of America
!!!YEM: Rights to all derivative electronic formats reserved.
!!!YEM: Refer to licensing agreement for further details.
!!!YEM: This file must be accompanied by the licensing agreement.
!!!YEM: A copy of the licensing agreement may be found at http://www.music-cog.ohio-state.edu/HumdrumDatabases/Palestrina/license.txt
!!!EMD: converted to Humdrum by Bret Aarden
